X: 6697
T: Center's Bonnet
R: jig
M: 6/8
K: Amixolydian
aAe cAc|fAe cAc|aAe cAc|fAe BGB|
aAe cAc|fAe cAc|dfd cac|Bdc BGB:|

